!!!SOCIAL_FUNCTION:	songs of war
!!!PDT:	1913
!!!OTL: No_40_Song_of_Rejoicing.krn
!!!REG: Great_Lakes
!!!LANG: Non-Tone
!!!LING_GROUP: Algonquin
**kern	**kern
*staff2	*staff1
=1-	=1-
*clefF4	*clefF4
*k[f#c#g#]	*k[f#c#g#]
*M2/4	*M2/4
8GG#/L	4e\
8GG#/J	.
8GG#/L	4e\
8GG#/J	.
=2||	=2||
*M3/4	*M3/4
8GG#/L	2e\
8GG#/J	.
8GG#/L	.
8GG#/J	.
8GG#/L	8c#\L
8GG#/J	8c#\J
=3||	=3||
*M2/4	*M2/4
2r	8.e\L
.	16e\Jk
.	4c#;\
=4	=4
2r	4A\
.	4F#\
=5	=5
2r	2A\
=6	=6
2r	[2A\
=7	=7
2r	2A\]
=8	=8
2r	4A\
.	4e\
=9||	=9||
*M3/4	*M3/4
2.r	2e\
.	8c#\L
.	8c#\J
=10||	=10||
*M2/4	*M2/4
2r	8e\L
.	8e\J
.	4c#;\
=11	=11
2r	4A\
.	4F#\
=12	=12
2r	2A\
=13||	=13||
*M3/4	*M3/4
2.r	2.A\
=14||	=14||
*M2/4	*M2/4
2r	4c#\
.	4c#\
=15	=15
2r	(4.c#\
.	8B\)
=16	=16
2r	4A\
.	8c#\L
.	8c#\J
=17	=17
2r	2A\
=18	=18
2r	4F#\
.	4E\
=19	=19
2r	4E\
.	4C#/
=20	=20
2r	2E\
=21	=21
2r	[2E\
=22	=22
2r	2E\]
=23	=23
2r	4A\
.	4A\
=24||	=24||
*M3/4	*M3/4
2.r	2A\
.	8F#\L
.	8F#\J
=25	=25
2.r	8.A\L
.	16A\Jk
.	2F#\
=26||	=26||
*M2/4	*M2/4
2r	4E\
.	4C#/
=27	=27
2r	4C#/
.	4BB/
=28	=28
2r	2AA/
==	==
*-	*-
